X:144
T:reel de vieux moulin
S:Doug Creighton - NESI 2011
Z:robin.beech@mcgill.ca
M:4/4
L:1/8
K:D
A3d B3d | c>dec defd | A3d B3d |1 c>dec d4 :|2 c>dec d2 |:
(3ABc | d2fd adfd | c2ec fcec | d2fd adfd | efec A2AB |
AFDF Adcd | BGDG BdcB | Acef gece |1 dfec d2 :| dfec d4 |]
